X: 10364
M: 3/4
L: 1/4
K: D
z |\
(Af)e | (dF)A | (GE)c | (df)A |\
(GE)c | (df)A | (GE)c | (df)z |\
(Af)e | dFA | GEc | d2 |]


